!!!COM: Palestrina, Giovanni Perluigi da
!!!OPR: Missa In duplicibus minoribus (II)
!!!OMD: Credo
!!!OTL: Et vitam
**kern	**kern	**kern	**kern	**kern
*Ibass	*Itenor	*Itenor	*Icalto	*Icant
!Bassus	!Tenor 2	!Tenor 1	!Altus	!Cantus
*clefF4	*clefGv2	*clefGv2	*clefG2	*clefG2
*k[]	*k[]	*k[]	*k[]	*k[]
*E:phr	*E:phr	*E:phr	*E:phr	*E:phr
*M4/2	*M4/2	*M4/2	*M4/2	*M4/2
=163	=163	=163	=163	=163
0AA	[0c	0A	[0e	1a
.	.	.	.	[1cc
=164	=164	=164	=164	=164
1C	1c]	0G	1e]	2cc]
.	.	.	.	4b
.	.	.	.	4a
1GG	[1d	.	[1g	1b
=165	=165	=165	=165	=165
0D	0d]	0A	2g]	1.a
.	.	.	4f#	.
.	.	.	4e	.
.	.	.	1f#	.
.	.	.	.	2b
=166	=166	=166	=166	=166
0C	1.G	0E	2.g	0cc
.	.	.	4f	.
.	.	.	1e	.
.	2A	.	.	.
=167	=167	=167	=167	=167
1GG	2.B	0G	1d	0b
.	4c	.	.	.
[1G	1d	.	1B	.
=168	=168	=168	=168	=168
2G]	0D	0A	0d	1a
4F	.	.	.	.
4E	.	.	.	.
1F	.	.	.	[1a
=169	=169	=169	=169	=169
0E	0r	0B	0e	2a]
.	.	.	.	4g#
.	.	.	.	4f#
.	.	.	.	1g#
=170	=170	=170	=170	=170
2.F	2r	0A	2c	[0a
.	1D	.	1f	.
4E	.	.	.	.
2D	.	.	.	.
2C	2E	.	[2e	.
=171	=171	=171	=171	=171
2D	2F	0A	4e]	1a]
.	.	.	4d	.
2D	2F	.	2d	.
1AA	[1E	.	2.c	2r
.	.	.	.	[2cc
.	.	.	4d	.
=172	=172	=172	=172	=172
0r	1E]	1G	1e	2cc]
.	.	.	.	1b
.	2r	1F	2.A	.
.	[2c	.	.	[2a
.	.	.	4B	.
=173	=173	=173	=173	=173
0r	4c]	1E	1c	4a]
.	4B	.	.	4g
.	2G	.	.	1g
.	[1A	[1D	[1d	.
.	.	.	.	4f#
.	.	.	.	4e
=174	=174	=174	=174	=174
1r	2A]	1D]	2d]	2f#
.	2A	.	2d	2f#
1GG	1B	1D	1d	[1g
=175	=175	=175	=175	=175
1.C	1c	[0E	1G	1g]
.	2r	.	2A	[1cc
2BB	2G	.	2B	.
=176	=176	=176	=176	=176
1AA	2A	0E]	2c	2cc]
.	2B	.	2d	2b
1AA	2c	.	2.e	2a
.	2c	.	.	2a
.	.	.	4e	.
=177	=177	=177	=177	=177
[0E	[0B	[0E	[0e	[0g#
=178	=178	=178	=178	=178
0E]	0B]	0E]	0e]	0g#]
=179	=179	=179	=179	=179
0r	1r	0r	1A	1r
.	2r	.	1c	1e
.	2A	.	.	.
=180	=180	=180	=180	=180
0r	2B	0r	2d	1g
.	2.c	.	2.e	.
.	.	.	.	[1a
.	4B	.	4d	.
.	4A	.	4c	.
.	4G	.	4B	.
=181	=181	=181	=181	=181
0r	2F	0r	2A	2a]
.	2E	.	2B	2g
.	2.A	.	[1c	2f
.	.	.	.	[2e
.	4G	.	.	.
=182	=182	=182	=182	=182
1r	1F	1r	2c]	2e]
.	.	.	4B	2d
.	.	.	4A	.
2r	2E	1B	4G#	1e
.	.	.	4A	.
2E	2G#	.	2B	.
=183	=183	=183	=183	=183
2F	2A	1d	2A	0r
2.G	2.B	.	2G	.
.	.	[1e	2r	.
4F	4A	.	.	.
4E	4G	.	2B	.
4D	4F	.	.	.
=184	=184	=184	=184	=184
2C	2G	2e]	2c	1g
2BB	2D	2d	2d	.
2AA	2A	2c	[1e	2a
2E	2G#	2B	.	2b
=185	=185	=185	=185	=185
0AA	2A	0A	0e]	0cc
.	1c	.	.	.
.	4B	.	.	.
.	4A	.	.	.
=186	=186	=186	=186	=186
[0E	[0G#	[0B	[0e	[0b
=187	=187	=187	=187	=187
0E]	0G#]	0B]	0e]	0b]
==	==	==	==	==
*-	*-	*-	*-	*-
!!!CDT: 1525/^1526/-1594/2/2
!!!OCY: Italia
!!!AGN: Mass (Paraphrase)
!!!AST: renaissance, vocal
!!!ASW: Gregorian Mass
!!!PWK: Masses, Book Mantuan I
!!!RNB: Cadence finals: A
!!!YOR: Le Opere Complete, v. 18, p. 1
!!!YOO: Rome, Italy: Fratelli Scalera
!!!END: 1992//
!!!EED: John Miller
!!!YEC: Copyright 2000, John Miller
!!!YEN: United States of America
!!!YEM: Rights to all derivative electronic formats reserved.
!!!YEM: Refer to licensing agreement for further details.
!!!YEM: This file must be accompanied by the licensing agreement.
!!!YEM: A copy of the licensing agreement may be found at http://www.music-cog.ohio-state.edu/HumdrumDatabases/Palestrina/license.txt
!!!EMD: converted to Humdrum by Bret Aarden
